X:82
T:Gan Ainm
R:Jig
S:Tom McGonigle, Belfast (concertina).
Q:300
M:6/8
Z:Bernie Stocks
K:D
|:dAF AFE | DB,A, A,3 | FEF AFA |1 BAF EFA :|2 BAF D3 :|
|: dcd fef | afd edB | FEF AFA |1 dAF E3 :|2 Bdc d3 :|
